X:1
T:James Gibb editions
T:Expectans expectavi - Lasso
T:#
%%score [ 1 2 3 4 ]
L:1/8
Q:1/4=96
M:4/4
K:F
V:1 treble nm="Soprano" snm="S"
V:2 treble nm="Alto" snm="A"
V:3 treble-8 nm="Tenor" snm="T"
V:4 bass nm="Bass" snm="B"
V:1
"^Orlando di Lasso\n(1532-94)" z8 | c8 |"^Expectans Expectavi" e4 f2 (d2- | dc d2) G2 A2 | %4
w: |Ex-|pe- ctans ex\-|* * * pe- cta-|
 G4 z2 c2 |[M:4/4] (A3 B c d2 ^c | d2) B2 z4 | z2 c2 =B2 (c2- | cF c2) d2 f2- | f2 e2 f4 | z8 | %11
w: vi, ex-|pe\- * * * *|* ctans|ex- pe- cta\-|* * * vi Do\-|* mi- num,||
 z2 c4 c2 | c4 (c3 d | e f2 e) f2 c2 | c2 c2 d4 | c4 =B3 B | =B2 B2 c2 A2- | A2 (c3 =B/A/ B2) | %18
w: et re-|spe- xit *|* * * me: et|ex- au- di-|vit de- pre-|ca- ti- o- nem|* me\- * * *|
 c8 | z2 G4 A2 | =B2 c2 c4- | c2 A2 A4 | A4 z4 | z2 c4 d2 | e2 g2 (gfed | c2 c2 c4 | c4 f3 f | %27
w: am,|et im-|mi- sit in|* os me-|um,|et im-|mi- sit in * * *|* os me-|um, can- ti-|
 f2 (d3 ^c/=B/ c2) | d4 d3 d | d2 B3 A/G/ A2) | B4 z4 | z8 | z4 z2 (c2- | cBAG F2) G2 | A2 B2 G4 | %35
w: cum no\- * * *|vum, can- ti-|cum no\- * * *|vum,||hy\-|* * * * * mnum|De- o no-|
 F2 f4 e2 | f2 d2 c4 | A4 (f3 e | d2) (c3 B B2- | BA/G/ A2) B2 d2 | (e>f g2) c4- | c4 (d4 | %42
w: stro, hy- mnum|De- o no-|stro, hy\- *|* mnum * *|* * * * De- o|no\- * * stro,|* hy\-|
 c3 B AB[Q:1/4=95] c2) |[Q:1/4=93] c4[Q:1/4=92] d2[Q:1/4=90] c2 |[Q:1/4=89] B4[Q:1/4=87] A4- | %45
w: |mnum De- o|no- stro.|
[Q:1/4=84] !fermata!A8 |] %46
w: |
V:2
 C8 | E4 F2 (A2- | AG A2) D2 (GA | BAGF E2) (F2- | FE/D/EF G2) G2 |[M:4/4] F2 E2 z2 A2- | %6
w: Ex-|pe- ctans ex\-|* * * pe- cta\- *|* * * * * vi|* * * * * * Do-|mi- num, ex\-|
 A2 G2 F2 B,2 | C4 D2 C2 | C4 B,2 A,2 | z2 C4 C2 | C4 (C3 D | E F2 E) F2 A2 | G2 A2 (A2 GF | %13
w: * pe- ctans ex-|pe- cta- vi|Do- mi- num,|et re-|spe- xit *|* * * me, et|re- spe- xit * *|
 G4) A2 A2 | G2 A2 B4 | A4 G3 G | G2 G2 G2 F2 | (E3 F G4) | G4 z2 C2 | D2 E4 F2 | (G4 A4) | %21
w: * me: et|ex- au- di-|vit de- pre-|ca- ti- o- nem|me\- * *|am, et|im- mi- sit|in *|
 G2 F4 E2 | z2 E2 F2 G2- | G2 E2 A2 =B2 | c2 d2 G4 | A4 G4 | A4 A3 A | A8 | A8 | B2 F3 F F2 | %30
w: os me- um,|et im- mi\-|* sit, et im-|mi- sit in|os me-|um, can- ti-|cum|no-|vum, can- ti- cum|
 F2 (B,3 A, G,2) | G2 ^F2 G2 A2 | =F4 E4 | (c3 B A2 G2- | GF) (F3 E/D/ E2) | A2 c2 (BA c2- | %36
w: no- vum, * *|hy- mnum De- o|no- stro,|hy\- * * *|* * mnum * * *|De- o no- * *|
 cC F3 E/D/ E2) | F2 D4 F2 | F4 G4 | F4 D2 (G2- | GFED E2) F2 | (A2 G3 F F2- | FE/D/ E2) (F3 E/D/ | %43
w: |stro, hy- mnum|De- o|no- stro, hy\-|* * * * * mnum|De\- * * *|* * * * o * *|
 CB,A,G, A,B,CA,) | D4 C4- | !fermata!C8 |] %46
w: |no- stro.||
V:3
 z8 | z8 | z8 | z8 | z4 c4- |[M:4/4][K:treble-8] c4 e4 | f2 (d3 c d2) | G2 A2 (G4 | A4) F3 F | %9
w: ||||Ex\-|* pe-|ctans ex\- * *|pe- cta- vi|* Do- mi-|
 G4 A4 | G2 A2 (A2 GF | G4) A2 f2 | e2 f2 (f2 ed | cB c2) c2 f2 | e2 f2 f4 | f4 d3 d | d2 d2 c4 | %17
w: num, et|re- spe- xit * *|* me, et|re- spe- xit * *|* * * me: et|ex- au- di-|vit de- pre-|ca- ti- o-|
 c4 d4 | e2 e4 f2 | g4 c2 c2 | d2 e4 f2 | e2 d2 c4 | c2 c4 d2 | e2 g2 (fe g2- | gf/e/ d2) (edcd | %25
w: nem me-|am, et im-|mi- sit, et|im- mi- sit|in os me-|um, et im-|mi- sit in * *|* * * * os * * *|
 e2 (f3 e/d/ e2) | f2 c3 c c2 | defd e4) | f4 f3 f | f2 (d3 c/B/ c2) | d4 (g3 f | e2) (d3 c c2- | %32
w: * me\- * * *|um, can- ti- cum|no\- * * * *|vum, can- ti-|cum no\- * * *|vum, hy\- *|* mnum * *|
 c!courtesy!_B/A/ B2) (cG g2) | a2 (f3 d _e2) | d4 z2 (c2- | cBAG F2) G2 | A2 B2 G4 | F2 (f3 edc | %38
w: * * * * De\- * *|o no\- * *|stro, hy\-|* * * * * mnum|De- o no-|stro, hy\- * * *|
 B2) c2 d2 _e2 | c4 B4 | z2 (c3 BAG | F2) G2 A2 B2 | G4 F4- | F8 | F8 | !fermata!F8 |] %46
w: * mnum De- o|no- stro,|hy\- * * *|* mnum De- o|no- stro.||||
V:4
 z8 | z8 | z8 | z4 C,4- | C,4 E,4 |[M:4/4] F,2 (A,3 G, A,2) | D,2 (G,A, B,A,G,F, | %7
w: |||Ex\-|* pe-|ctans ex\- * *|pe- cta\- * * * * *|
 E,2) (F,3 E,/D,/ E,2) | (F,3 E, D,2) D,2 | C,4 F,4 | E,2 F,2 (F,2 E,D, | C,B,, C,2) F,4 | z8 | %13
w: * vi * * *|Do\- * * mi-|num, et|re- spe- xit * *|* * * me:||
 z4 F,4 | C2 F,2 B,4 | F,4 G,3 G, | G,2 G,2 E,2 F,2 | (A,4 G,4) | C4 A,4 | B,2 (C3 B, A,2) | %20
w: et|ex- au- di-|vit de- pre-|ca- ti- o- nem|me\- *|am, et|im- mi\- * *|
 G,2 (CB, A,G, F,2) | C,2 (D,E, F,G, A,2) | F,2 A,4 B,2 | (C3 B, A,2) G,2 | C2 =B,2 (C3 _B, | %25
w: sit in * * * *|os me\- * * * *|um, et im-|mi\- * * sit|in os me\- *|
 A,2 G,F, C4) | F,2 F,3 F, F,2 | (D,3 C,/B,,/ A,,4) | D,2 D3 D D2 | (B,3 A,/G,/ F,4) | %30
w: |um, can- ti- cum|no\- * * *|vum, can- ti- cum|no\- * * *|
 B,2 (G,3 F,E,D, | C,2) D,2 E,2 F,2 | D,4 C,4 | z8 | z8 | (F,3 E, D,2) C,2 | F,2 B,,2 (C,4 | %37
w: vum, hy\- * * *|* mnum De- o|no- stro,|||hy\- * * mnum|De- o no\-|
 D,4) B,,2 B,2- | B,2 A,2 G,2 _E,2 | F,4 G,4 | (C3 B, A,G, F,2- | F,2) _E,2 D,2 B,,2 | %42
w: * stro, hy\-|* mnum De- o|no- stro,|hy\- * * * *|* mnum De- o|
 C,4 F,2 (A,2- | A,G,F,E, D,2) A,,2 | B,,4 F,4- | !fermata!F,8 |] %46
w: no- stro, De\-|* * * * * o|no- stro.||

